X: 37600
T: Smith's Burn
R: reel
M: 4/4
K: Aminor
|A/A/A AB cBAc|BGDC B,A,G,A|EAcB Acea|1 gedB A2A2:|2 gedB A/A/A Ad||
eaga egdA|Bddd BGGB|eaga egdg|ecdB A/A/A A2|
eaga egdA|B[dg][dg][dg] BGGB|ABcA Bcdg|ecdB A2A2||

